!!!OTL:
!!!ONR: No. 2
!! From Madeleine Beland,
!! "Chansons de Voyageurs, Coureurs de Bois et Forestiers"
!! Quebec: Les Presses de l'universite/ Laval, 1982
!! ISBN 2-7637-6942-X
**kern
*clefG2
*k[b-]
*M2/4
=1-
4r
8a
8bn
=
8a
8g
8f
8d
=
4c
8d
8e
=
8.f
16g
8f
8e
=
4f
8a
8bn
=
8a
8g
8f
8d
=
4c
8d
8e
=
8f
16g
16f
8e
8g
=
4.f
8f
=
qg
8f
8a
8a
8cc
=
16cc
16ee
4dd
16ee
16dd
=
4cc
8cc
8dd
=
4cc
4a
=
8.a
16g
8.g
16f
=
4g
8.cc
16cc
=
4cc
8.b-
16a
=
4b-
8.b-
16cc
=
4dd
8.cc
16b-
=
16a
16b-
16a
16g
8.f
16g
=
8.a
16cc
8g
8a
=
2f
==
*-
